!!!OTL: 619. Lebe wohl, vergiss ein nicht!
!!!ODT: 1890
!!!ARE: Europa, Mitteleuropa, Deutschland, Hessen, Wetterau, Dill - Kreis
!!!SCT: E0619A
!!!TXL: @@DE
!!!YEM: Copyright 1995, estate of Helmut Schaffrath.
**kern	**text
*ICvox	*
*M4/4	*
*met(c)	*
*k[f#]	*
*G:	*
=1	=1
!LO:TX:a:t=Langsam.	!
!LO:TX:a:t=Aus der Wetterau und dem Dillkreiſe 1890.	!
{8bL	Al-
8ddJ	.
4dd	-le
8bL	Leu-
8ddJ	.
4dd	-te
=2	=2
8ccL	ſol-
8bJ	.
8ccL	-lens
8ddJ	.
4cc	wiſ-
4b}	-ſen,
=3	=3
{8bL	wa-
8ddJ	.
4dd	-rum
8bL	mei-
8ddJ	.
4dd	-ne
=4	=4
8ccL	Thrä-
8bJ	.
8ccL	-nen
8ddJ	.
4cc	flie-
4b}	-ßen,
=5	=5
{4ee	und
4ee	mein
(4gg	Herʒ
8ff#)	.
8ee	ſo
=6	=6
4dd	trau-
4dd	-rig
4gg	iſt
4r}	.
=7	=7
{8a	Le-
8a	-be,
8b/	le-
8cc	-be
4ee	wohl
8dd	und
8cc	ver-
=8	=8
4dd	-giß
8b	mei-
8b	-ner
2b;}	nicht!
==	==
!!!AGN: Liebes - Lied, Abschied
!!!ONB: ESAC (Essen Associative Code) Database: ERK2
!!!AMT: simple quadruple
!!!AIN: vox
!!!EED: Helmut Schaffrath
!!!EEV: 1.0
!!!GTL: Liebeslieder [Neuere (aus dem 18. bis 19. Jahrh.) - Liebeslust]
!!!URL-scan: https://rosdok.uni-rostock.de/mcrviewer/recordIdentifier/rosdok_ppn745177662/iview2/phys_0438.iview2?x=193.8995864193107&y=1439.476045265561&scale=0.7029437510502773&rotation=0&layout=singlePageLayout
!!!ENC: Anna Maria Matuszewska
!!!EEV: 2024/12/12
*-	*-
